img/icons/facebook.svg

<?xml version="1.0" encoding="UTF-8" standalone="no"?>
<svg width="9px" height="20px" viewBox="0 0 9 20" version="1.1" xmlns="http://www.w3.org/2000/svg" xmlns:xlink="http://www.w3.org/1999/xlink" xmlns:sketch="http://www.bohemiancoding.com/sketch/ns">
    <!-- Generator: Sketch 3.5.2 (25235) - http://www.bohemiancoding.com/sketch -->
    <title>Fill 4</title>
    <desc>Created with Sketch.</desc>
    <defs></defs>
    <g id="Page-1" stroke="none" stroke-width="1" fill="none" fill-rule="evenodd" sketch:type="MSPage">
        <path d="M1.92089004,20 L5.76267012,20 L5.76267012,10 L8.61391124,10 L8.96415353,6 L5.91121895,6 L5.91121895,4.40066667 C5.91121895,3.62133333 6.41001007,3.43933333 6.76025235,3.43933333 L8.91485068,3.43933333 L8.91485068,0.0126666667 L5.94771586,0 C2.65338944,0 1.90488262,2.556 1.90488262,4.192 L1.90488262,6 L0,6 L0,10 L1.92089004,10 L1.92089004,20 Z" id="Fill-4" fill="#FFFFFF" sketch:type="MSShapeGroup"></path>
    </g>
</svg>

<svg width="9" height="20" viewBox="0 0 9 20" xmlns="http://www.w3.org/2000/svg"><title>Fill 4</title><path d="M1.92 20h3.843V10h2.85l.35-4H5.912V4.4c0-.78.5-.96.85-.96h2.155V.012L5.948 0C2.653 0 1.905 2.556 1.905 4.192V6H0v4h1.92v10z" fill="#FFF" fill-rule="evenodd"/></svg>
